X:4284
L:1/8
Q:1/2=100
M:3/2
K:A
 e4 c3 B AB c2 | B4 E4 E4 | FG A2 F2 (ED) (CD) E2 | B,4- B,4 B3 c | d4 f4 FG A2 | G6 B2 Bc d2 | 
 e2 c4 c2 B2 B2 | A6 e2 (fg) a2 :: d3 c d2 e2 (fe)(fg) | B6 ^d2 e2 f2 | g3 a f2 (ge) f2 ^d2 | 
 e6 B2 Bc d2 | c3 B c2 A2 (FG) A2 | G6 e2 (ef) g2 | f3 e (fa)(cB) B2 A2 | A6 e2 (fg) a2 :|

